communes/763.svg

<?xml version="1.0" encoding="UTF-8"?>
<svg version="1.0" viewBox="0 0 603 763" xmlns="http://www.w3.org/2000/svg" xmlns:cc="http://web.resource.org/cc/" xmlns:dc="http://purl.org/dc/elements/1.1/" xmlns:rdf="http://www.w3.org/1999/02/22-rdf-syntax-ns#" xmlns:xlink="http://www.w3.org/1999/xlink">
<metadata>
<rdf:RDF>
<cc:Work rdf:about="">
<dc:format>image/svg+xml</dc:format>
<dc:type rdf:resource="http://purl.org/dc/dcmitype/StillImage"/>
<dc:date>07-AUG-2006</dc:date>
<dc:creator>
<cc:Agent>
<dc:title>Jérôme BLUM (wagner51)</dc:title>
</cc:Agent>
</dc:creator>
<cc:license rdf:resource="http://creativecommons.org/licenses/GPL/2.0/"/>
<dc:coverage/>
<dc:description>Gabarit pour le Projet:Blasons de WIkipédia</dc:description>
<dc:subject>
<rdf:Bag>
<rdf:li>blason suisse modèle gabarit projet blasons</rdf:li>
</rdf:Bag>
</dc:subject>
<dc:language>fr</dc:language>
<dc:title>Gabrit d'un blason suisse</dc:title>
</cc:Work>
<cc:License rdf:about="http://creativecommons.org/licenses/GPL/2.0/">
<cc:permits rdf:resource="http://web.resource.org/cc/Reproduction"/>
<cc:permits rdf:resource="http://web.resource.org/cc/Distribution"/>
<cc:requires rdf:resource="http://web.resource.org/cc/Notice"/>
<cc:permits rdf:resource="http://web.resource.org/cc/DerivativeWorks"/>
<cc:requires rdf:resource="http://web.resource.org/cc/ShareAlike"/>
<cc:requires rdf:resource="http://web.resource.org/cc/SourceCode"/>
</cc:License>
</rdf:RDF>
</metadata>
<defs>
<radialGradient id="a" cx="858.04" cy="579.93" r="300" gradientTransform="matrix(1.215 1.5316e-24 1.4647e-23 1.2667 -839.19 -490.49)" gradientUnits="userSpaceOnUse">
<stop stop-color="#fff" stop-opacity=".31373" offset="0"/>
<stop stop-color="#fff" stop-opacity=".25098" offset=".19"/>
<stop stop-color="#6b6b6b" stop-opacity=".12549" offset=".6"/>
<stop stop-opacity=".12549" offset="1"/>
</radialGradient>
</defs>
<desc>Coat of Arms of Canton of Freiburg (Fribourg)</desc>
<path d="m1.5 1.5v458.87c0 166.31 134.31 301.13 300 301.13 165.69 0 300-134.82 300-301.13v-458.87h-600z" fill="#fff"/>
<g fill="#e20909" fill-rule="evenodd" stroke="#000">
<path d="m104.18 657.71 130.52-0.0379 0.75737-21.545 128.62 1.2639 0.30647 19.969 128.45-1.1879-0.00741-500.93c12.652-0.46876 17.262 0.19225 26.941-0.41025l2.0959-91.719h-40.811l-0.70829 52.63-25.863-0.56383v-52.066h-46.565l-1.6441 50.454h-23.283l0.82195-50.454h-41.633l-0.69863 92.632 23.463 0.44119-0.76872 250.92c1.6332 3.8576-14.664 3.5409-21.995 3.0036v-61.304l-26.564 0.01508 0.45668 59.101c4.0142-1.0006-22.443-0.72524-31.73 0l-0.25218-57.397-25.26 0.33073-0.78458 58.163-24.665-0.1226-1.1216-254.8h21.639l1.2738-90.99h-34.965l-1.1762 52.066h-25.939v-52.066h-43.555v52.066h-27.115v-52.066h-44.921v92.601l26.33 0.47213 0.34564 501.52z" stroke-width="5"/>
<path d="m296.8 524.5c-17.048 0-30.883 16.087-30.883 35.909 0 1.3933 0.07754 2.7692 0.21057 4.1213h-0.21057v71.818h61.767v-71.818h-0.21057c0.13304-1.3521 0.21057-2.728 0.21057-4.1213 0-19.822-13.836-35.909-30.883-35.909z" stroke-linecap="round" stroke-linejoin="round" stroke-width="3"/>
<path d="m233.5 334.59 1.152 320.52" stroke-width="5"/>
<path d="m363.89 327.35 0.46932 324.49" stroke-width="5"/>
<path d="m234.01 154.07c-136.25 0.82749-138.35 1.5261-138.35 1.5261" stroke-width="5"/>
<path d="m500.94 154.77-136.25 0.82749 136.25-0.82749" stroke-width="5"/>
<rect x="152.43" y="256.49" width="27" height="65.011" stroke-linecap="round" stroke-linejoin="round" stroke-width="3"/>
<rect x="413.5" y="259.28" width="27" height="62.217" stroke-linecap="round" stroke-linejoin="round" stroke-width="3"/>
</g>
<g>
<path d="m1.5 1.5v458.87c0 166.31 134.31 301.13 300 301.13 165.69 0 300-134.82 300-301.13v-458.87h-600z" fill="url(#a)"/>
<path d="m1.5 1.5v458.87c0 166.31 134.31 301.13 300 301.13 165.69 0 300-134.82 300-301.13v-458.87h-600z" fill="none" stroke="#000" stroke-width="3"/>
</g>
</svg>

<?xml version="1.0" encoding="UTF-8" standalone="no"?>
<svg
   xmlns:dc="http://purl.org/dc/elements/1.1/"
   xmlns:cc="http://web.resource.org/cc/"
   xmlns:rdf="http://www.w3.org/1999/02/22-rdf-syntax-ns#"
   xmlns:svg="http://www.w3.org/2000/svg"
   xmlns="http://www.w3.org/2000/svg"
   xmlns:xlink="http://www.w3.org/1999/xlink"
   xmlns:sodipodi="http://sodipodi.sourceforge.net/DTD/sodipodi-0.dtd"
   xmlns:inkscape="http://www.inkscape.org/namespaces/inkscape"
   height="763"
   width="603"
   version="1.0"
   id="svg20"
   sodipodi:version="0.32"
   inkscape:version="0.44.1"
   sodipodi:docname="Erlenbach im Simmental-coat of arms.svg"
   sodipodi:docbase="F:\MIS DOCUMENTOS\Mis imágenes\Encyclopédie\Escudos de Suiza">
  <metadata
     id="metadata31">
    <rdf:RDF>
      <cc:Work
         rdf:about="">
        <dc:format>image/svg+xml</dc:format>
        <dc:type
           rdf:resource="http://purl.org/dc/dcmitype/StillImage" />
        <dc:date>07-AUG-2006</dc:date>
        <dc:creator>
          <cc:Agent>
            <dc:title>Jérôme BLUM (wagner51)</dc:title>
          </cc:Agent>
        </dc:creator>
        <cc:license
           rdf:resource="http://creativecommons.org/licenses/GPL/2.0/" />
        <dc:coverage />
        <dc:description>Gabarit pour le Projet:Blasons de WIkipédia</dc:description>
        <dc:subject>
          <rdf:Bag>
            <rdf:li>blason suisse modèle gabarit projet blasons</rdf:li>
          </rdf:Bag>
        </dc:subject>
        <dc:language>fr</dc:language>
        <dc:title>Gabrit d'un blason suisse</dc:title>
      </cc:Work>
      <cc:License
         rdf:about="http://creativecommons.org/licenses/GPL/2.0/">
        <cc:permits
           rdf:resource="http://web.resource.org/cc/Reproduction" />
        <cc:permits
           rdf:resource="http://web.resource.org/cc/Distribution" />
        <cc:requires
           rdf:resource="http://web.resource.org/cc/Notice" />
        <cc:permits
           rdf:resource="http://web.resource.org/cc/DerivativeWorks" />
        <cc:requires
           rdf:resource="http://web.resource.org/cc/ShareAlike" />
        <cc:requires
           rdf:resource="http://web.resource.org/cc/SourceCode" />
      </cc:License>
    </rdf:RDF>
  </metadata>
  <defs
     id="defs29">
    <linearGradient
       id="linearGradient2893">
      <stop
         style="stop-color:#ffffff;stop-opacity:0.3137255;"
         offset="0"
         id="stop2895" />
      <stop
         id="stop2897"
         offset="0.19"
         style="stop-color:#ffffff;stop-opacity:0.25098041;" />
      <stop
         style="stop-color:#6b6b6b;stop-opacity:0.1254902;"
         offset="0.60000002"
         id="stop2901" />
      <stop
         style="stop-color:#000000;stop-opacity:0.1254902;"
         offset="1"
         id="stop2899" />
    </linearGradient>
    <linearGradient
       id="linearGradient2955">
      <stop
         style="stop-color:white;stop-opacity:0;"
         offset="0"
         id="stop2965" />
      <stop
         style="stop-color:black;stop-opacity:0.64583331;"
         offset="1"
         id="stop2959" />
    </linearGradient>
    <radialGradient
       inkscape:collect="always"
       xlink:href="#linearGradient2893"
       id="radialGradient3236"
       gradientUnits="userSpaceOnUse"
       gradientTransform="matrix(1.215027,1.531577e-24,1.464684e-23,1.266667,-839.1924,-490.4894)"
       cx="858.04236"
       cy="579.93323"
       fx="858.04236"
       fy="579.93323"
       r="300" />
  </defs>
  <sodipodi:namedview
     inkscape:window-height="682"
     inkscape:window-width="1024"
     inkscape:pageshadow="2"
     inkscape:pageopacity="0.0"
     guidetolerance="10.0"
     gridtolerance="10.0"
     objecttolerance="10.0"
     borderopacity="1.0"
     bordercolor="#666666"
     pagecolor="#ffffff"
     id="base"
     inkscape:zoom="0.50607109"
     inkscape:cx="398.43673"
     inkscape:cy="392.91348"
     inkscape:window-x="-4"
     inkscape:window-y="-4"
     inkscape:current-layer="layer2"
     showgrid="true" />
  <desc
     id="desc22">Coat of Arms of Canton of Freiburg (Fribourg)</desc>
  <g
     inkscape:groupmode="layer"
     id="layer1"
     inkscape:label="Fond écu"
     sodipodi:insensitive="true">
    <path
       id="path1899"
       d="M 1.5,1.49998 L 1.5,460.3679 C 1.5,626.6785 135.81456,761.5 301.49999,761.5 C 467.18543,761.5 601.5,626.6785 601.5,460.3679 L 601.5,1.49998 L 1.5,1.49998 z "
       style="fill:white;fill-opacity:1" />
  </g>
  <g
     inkscape:groupmode="layer"
     id="layer2"
     inkscape:label="Meubles"
     sodipodi:insensitive="true">
    <g
       id="g2797">
      <path
         sodipodi:nodetypes="ccccccccccccccccccccccccccccccccccccccccccccc"
         id="path2822"
         d="M 104.17568,657.70591 L 234.69697,657.66801 L 235.45434,636.12273 L 364.07711,637.38662 L 364.38358,657.35527 L 492.83451,656.16741 L 492.8271,155.24233 C 505.47933,154.77357 510.08911,155.43458 519.76811,154.83208 L 521.86398,63.112986 L 481.05262,63.112986 L 480.34433,115.7427 L 454.48182,115.17887 L 454.48182,63.112986 L 407.91633,63.112986 L 406.27221,113.56693 L 382.98954,113.56693 L 383.81149,63.112986 L 342.17818,63.112986 L 341.47955,155.74538 L 364.94224,156.18657 L 364.17352,407.11135 C 365.80675,410.969 349.50997,410.65226 342.17818,410.11495 L 342.17818,348.81143 L 315.61462,348.82651 L 316.0713,407.92704 C 320.08552,406.92645 293.62838,407.2018 284.34173,407.92704 L 284.08955,350.53015 L 258.82978,350.86088 L 258.0452,409.02385 L 233.38052,408.90125 L 232.25894,154.10252 L 253.89764,154.10252 L 255.17148,63.112986 L 220.20656,63.112986 L 219.03035,115.17887 L 193.09166,115.17887 L 193.09166,63.112986 L 149.53629,63.112986 L 149.53629,115.17887 C 149.53629,115.17887 122.42141,115.17887 122.42141,115.17887 L 122.42141,63.112986 L 77.49997,63.112986 L 77.49997,155.71444 L 103.83004,156.18657 L 104.17568,657.70591 z "
         style="fill:#e20909;fill-opacity:1;fill-rule:evenodd;stroke:black;stroke-width:5.00000095;stroke-linecap:butt;stroke-linejoin:miter;stroke-miterlimit:4;stroke-dasharray:none;stroke-opacity:1" />
      <path
         id="path3701"
         d="M 296.79522,524.49992 C 279.74752,524.49992 265.91174,540.58702 265.91173,560.40866 C 265.91173,561.80197 265.98927,563.1779 266.1223,564.53 L 265.91173,564.53 L 265.91173,636.34753 L 327.67871,636.34753 L 327.67871,564.53 L 327.46814,564.53 C 327.60118,563.1779 327.67871,561.80197 327.67871,560.40866 C 327.67871,540.58705 313.84291,524.49992 296.79522,524.49992 z "
         style="fill:#e20909;fill-opacity:1;fill-rule:evenodd;stroke:black;stroke-width:3.00000119;stroke-linecap:round;stroke-linejoin:round;stroke-miterlimit:4;stroke-dasharray:none;stroke-opacity:1" />
      <path
         id="path2804"
         d="M 233.50307,334.58828 L 234.65507,655.10976"
         style="fill:#e20909;fill-opacity:1;fill-rule:evenodd;stroke:black;stroke-width:5.00000143;stroke-linecap:butt;stroke-linejoin:miter;stroke-miterlimit:4;stroke-dasharray:none;stroke-opacity:1"
         sodipodi:nodetypes="cc" />
      <path
         style="fill:#e20909;fill-opacity:1;fill-rule:evenodd;stroke:black;stroke-width:5.00000095;stroke-linecap:butt;stroke-linejoin:miter;stroke-miterlimit:4;stroke-dasharray:none;stroke-opacity:1"
         d="M 363.88852,327.35343 L 364.35784,651.8389"
         id="path3691"
         sodipodi:nodetypes="cc" />
      <path
         style="fill:#e20909;fill-opacity:1;fill-rule:evenodd;stroke:black;stroke-width:5.00000143;stroke-linecap:butt;stroke-linejoin:miter;stroke-miterlimit:4;stroke-dasharray:none;stroke-opacity:1"
         d="M 234.01335,154.07383 C 97.758726,154.90132 95.662854,155.59994 95.662854,155.59994 L 95.662854,155.59994 L 95.662854,155.59994"
         id="path3693"
         sodipodi:nodetypes="cccc" />
      <path
         id="path3695"
         d="M 500.94069,154.77245 C 364.68607,155.59994 364.68607,155.59994 364.68607,155.59994 L 364.68607,155.59994 L 364.68607,155.59994 L 500.94069,154.77245"
         style="fill:#e20909;fill-opacity:1;fill-rule:evenodd;stroke:black;stroke-width:5.00000143;stroke-linecap:butt;stroke-linejoin:miter;stroke-miterlimit:4;stroke-dasharray:none;stroke-opacity:1"
         sodipodi:nodetypes="ccccc" />
      <rect
         y="256.48911"
         x="152.42799"
         height="65.011299"
         width="27.000008"
         id="rect3697"
         style="fill:#e20909;fill-opacity:1;fill-rule:evenodd;stroke:black;stroke-width:3.00000262;stroke-linecap:round;stroke-linejoin:round;stroke-miterlimit:4;stroke-dasharray:none;stroke-opacity:1" />
      <rect
         style="fill:#e20909;fill-opacity:1;fill-rule:evenodd;stroke:black;stroke-width:3.00000238;stroke-linecap:round;stroke-linejoin:round;stroke-miterlimit:4;stroke-dasharray:none;stroke-opacity:1"
         id="rect3699"
         width="27.000008"
         height="62.216797"
         x="413.50012"
         y="259.28339" />
    </g>
  </g>
  <g
     inkscape:groupmode="layer"
     id="layer3"
     inkscape:label="Reflet final"
     style="display:inline"
     sodipodi:insensitive="true">
    <path
       style="fill:url(#radialGradient3236);fill-opacity:1"
       d="M 1.5,1.5 L 1.5,460.3679 C 1.5,626.67854 135.81454,761.5 301.49993,761.5 C 467.1854,761.5 601.5,626.67854 601.5,460.3679 L 601.5,1.5 L 1.5,1.5 z "
       id="path2346" />
  </g>
  <g
     inkscape:groupmode="layer"
     id="layer4"
     inkscape:label="Contour final"
     style="display:inline"
     sodipodi:insensitive="true">
    <path
       style="fill:none;fill-opacity:1;stroke:#000000;stroke-width:3;stroke-miterlimit:4;stroke-dasharray:none;stroke-opacity:1"
       d="M 1.5,1.5 L 1.5,460.36794 C 1.5,626.67854 135.81454,761.5 301.49993,761.5 C 467.1854,761.5 601.5,626.67854 601.5,460.36794 L 601.5,1.5 L 1.5,1.5 z "
       id="path3239" />
  </g>
</svg>
